images/Subtract.svg

<svg width="96" height="96" viewBox="0 0 96 96" fill="none" xmlns="http://www.w3.org/2000/svg">
<path d="M0 4C0 1.79077 1.79089 0 4 0H16.5C17.8807 0 19 1.11938 19 2.5C19 3.88062 17.8807 5 16.5 5H7C5.89539 5 5 5.89551 5 7V16.5C5 17.8806 3.88074 19 2.5 19C1.11926 19 0 17.8806 0 16.5V4Z" fill="url(#paint0_linear_285_548)"/>
<path d="M4 96C1.79089 96 0 94.2092 0 92V79.5C0 78.1194 1.11926 77 2.5 77C3.88074 77 5 78.1194 5 79.5V89C5 90.1045 5.89539 91 7 91H16.5C17.8807 91 19 92.1194 19 93.5C19 94.8806 17.8807 96 16.5 96H4Z" fill="url(#paint1_linear_285_548)"/>
<path d="M92 96C94.2091 96 96 94.2092 96 92V79.5C96 78.1194 94.8807 77 93.5 77C92.1193 77 91 78.1194 91 79.5V89C91 90.1045 90.1046 91 89 91H79.5C78.1193 91 77 92.1194 77 93.5C77 94.8806 78.1193 96 79.5 96H92Z" fill="url(#paint2_linear_285_548)"/>
<path d="M92 0C94.2091 0 96 1.79077 96 4V16.5C96 17.8806 94.8807 19 93.5 19C92.1193 19 91 17.8806 91 16.5V7C91 5.89551 90.1046 5 89 5H79.5C78.1193 5 77 3.88062 77 2.5C77 1.11938 78.1193 0 79.5 0H92Z" fill="url(#paint3_linear_285_548)"/>
<path d="M47.5 71C49.619 71 51.8678 70.2764 54.1179 69.0222C54.7697 75.4062 58.0586 79.6646 62.3733 82.2866C66.314 84.6812 70.9875 85.6492 75.0115 85.917C76.3892 86.0088 77.509 84.8809 77.509 83.5C77.509 82.1194 76.3884 81.0105 75.0118 80.9045C71.5963 80.6414 67.9176 79.8049 64.9698 78.0137C61.4717 75.8879 58.8258 72.27 59 66C59.209 65.8245 59.4163 65.6453 59.6219 65.4626C61.4718 63.8203 60.161 61 57.6873 61C56.9335 61 56.2124 61.2935 55.6461 61.791C54.8539 62.4873 54.0601 63.1128 53.2755 63.657C50.8047 65.3706 48.8331 66 47.5 66C46.0986 66 44.0972 65.3784 41.6486 63.7461C40.774 63.1631 39.8884 62.481 39.007 61.7131C38.4911 61.2637 37.8357 61 37.1514 61C34.8531 61 33.6609 63.6436 35.374 65.1755C36.0754 65.8027 36.788 66.3909 37.5071 66.9338C37.4259 72.6694 34.8733 75.9875 31.5392 78.0137C28.5914 79.8049 24.9127 80.6414 21.4972 80.9045C20.1206 81.0105 19 82.1194 19 83.5C19 84.8809 20.1199 86.0088 21.4976 85.917C25.5215 85.6492 30.1951 84.6812 34.1357 82.2866C38.2731 79.7725 41.4672 75.7537 42.2975 69.7988C44.0704 70.5715 45.8258 71 47.5 71Z" fill="url(#paint4_linear_285_548)"/>
<path fill-rule="evenodd" clip-rule="evenodd" d="M70.0972 50.6184C69.717 51.4692 68.8623 52 67.9304 52C66.0432 52 64.8599 49.9292 65.6516 48.2161C67.1617 44.948 68 41.8733 68 39.5C68 29.8845 65.394 23.2925 61.7758 19.176C58.1984 15.106 53.2424 13 47.5 13C41.8945 13 36.9128 15.2551 33.2625 19.5071C29.5784 23.7981 27 30.4385 27 39.5C27 42.0554 27.7816 45.1133 29.179 48.271C29.931 49.9705 28.7573 52 26.8989 52C25.9868 52 25.1472 51.4871 24.7695 50.6567C24.2163 49.4407 23.7339 48.2178 23.3335 47.0032C23.1759 47.0044 22.9319 47.0044 22.6724 47.0042C22.3892 47.0037 22.0876 47.0022 21.8594 47.0012H21.7589L21.5 47.0002C16.8055 47.0002 13 43.1948 13 38.5002C13 33.8059 16.8055 30.0002 21.5 30.0002L21.7644 29.9993H21.7742L21.8829 29.9988C22.1896 29.9976 22.6181 29.9958 22.9587 29.9958C25.9847 15.9014 35.8263 8 47.5 8C59.2688 8 69.1754 15.3325 72.1138 29.9971C72.2946 29.9949 72.6293 29.9958 72.9268 29.9973L73.5 30.0002C78.1945 30.0002 82 33.8059 82 38.5002C82 43.1948 78.1945 47.0002 73.5 47.0002L73.2214 47.0012H73.1349C72.7128 47.0029 72.0231 47.0049 71.54 47.0042C71.12 48.1985 70.6376 49.4089 70.0972 50.6184ZM73 39.5C73 40.3057 72.9346 41.1453 72.8093 42.0105C72.891 42.0103 72.9795 42.0093 73.0657 42.0081L73.2798 42.0039H73.2826L73.4364 42.001L73.5 42.0002C75.433 42.0002 77 40.4333 77 38.5002C77 36.5674 75.433 35.0002 73.5 35.0002C73.455 35.0002 73.3749 34.9988 73.2784 34.9966L73.1233 34.9937L72.9826 34.9915C72.9253 34.9907 72.8683 34.9901 72.8142 34.99C72.9369 36.4353 73 37.9387 73 39.5ZM22.2032 34.9878C22.0796 34.9897 21.9452 34.9924 21.825 34.9949L21.5907 34.9993L21.5 35.0002C19.567 35.0002 18 36.5674 18 38.5002C18 40.4333 19.567 42.0002 21.5 42.0002C21.5413 42.0002 21.6121 42.0017 21.698 42.0034L21.7216 42.0039L21.7386 42.0044C21.8694 42.0071 22.027 42.01 22.1674 42.0107C22.0573 41.156 22 40.3171 22 39.5C22 37.9441 22.0691 36.4395 22.2032 34.9878Z" fill="url(#paint5_linear_285_548)"/>
<path d="M4 56.5C4 55.1194 5.11926 54 6.5 54H17.5C18.8807 54 20 55.1193 20 56.5C20 57.8807 18.8807 59 17.5 59H6.5C5.11926 59 4 57.8806 4 56.5Z" fill="url(#paint6_linear_285_548)"/>
<path d="M30 56.5C30 57.8807 31.1193 59 32.5 59H40.5C41.8807 59 43 57.8807 43 56.5C43 55.1193 41.8807 54 40.5 54H32.5C31.1193 54 30 55.1193 30 56.5Z" fill="url(#paint7_linear_285_548)"/>
<path d="M66 56.5C66 57.8807 64.8807 59 63.5 59H55.5C54.1193 59 53 57.8807 53 56.5C53 55.1193 54.1193 54 55.5 54H63.5C64.8807 54 66 55.1193 66 56.5Z" fill="url(#paint8_linear_285_548)"/>
<path d="M76 56.5C76 57.8807 77.1193 59 78.5 59H89.5C90.8807 59 92 57.8806 92 56.5C92 55.1194 90.8807 54 89.5 54H78.5C77.1193 54 76 55.1193 76 56.5Z" fill="url(#paint9_linear_285_548)"/>
<defs>
<linearGradient id="paint0_linear_285_548" x1="0" y1="0" x2="103.494" y2="8.90509" gradientUnits="userSpaceOnUse">
<stop stop-color="#3F34EC"/>
<stop offset="1" stop-color="#13D8D4"/>
</linearGradient>
<linearGradient id="paint1_linear_285_548" x1="0" y1="0" x2="103.494" y2="8.90509" gradientUnits="userSpaceOnUse">
<stop stop-color="#3F34EC"/>
<stop offset="1" stop-color="#13D8D4"/>
</linearGradient>
<linearGradient id="paint2_linear_285_548" x1="0" y1="0" x2="103.494" y2="8.90509" gradientUnits="userSpaceOnUse">
<stop stop-color="#3F34EC"/>
<stop offset="1" stop-color="#13D8D4"/>
</linearGradient>
<linearGradient id="paint3_linear_285_548" x1="0" y1="0" x2="103.494" y2="8.90509" gradientUnits="userSpaceOnUse">
<stop stop-color="#3F34EC"/>
<stop offset="1" stop-color="#13D8D4"/>
</linearGradient>
<linearGradient id="paint4_linear_285_548" x1="0" y1="0" x2="103.494" y2="8.90509" gradientUnits="userSpaceOnUse">
<stop stop-color="#3F34EC"/>
<stop offset="1" stop-color="#13D8D4"/>
</linearGradient>
<linearGradient id="paint5_linear_285_548" x1="0" y1="0" x2="103.494" y2="8.90509" gradientUnits="userSpaceOnUse">
<stop stop-color="#3F34EC"/>
<stop offset="1" stop-color="#13D8D4"/>
</linearGradient>
<linearGradient id="paint6_linear_285_548" x1="0" y1="0" x2="103.494" y2="8.90509" gradientUnits="userSpaceOnUse">
<stop stop-color="#3F34EC"/>
<stop offset="1" stop-color="#13D8D4"/>
</linearGradient>
<linearGradient id="paint7_linear_285_548" x1="0" y1="0" x2="103.494" y2="8.90509" gradientUnits="userSpaceOnUse">
<stop stop-color="#3F34EC"/>
<stop offset="1" stop-color="#13D8D4"/>
</linearGradient>
<linearGradient id="paint8_linear_285_548" x1="0" y1="0" x2="103.494" y2="8.90509" gradientUnits="userSpaceOnUse">
<stop stop-color="#3F34EC"/>
<stop offset="1" stop-color="#13D8D4"/>
</linearGradient>
<linearGradient id="paint9_linear_285_548" x1="0" y1="0" x2="103.494" y2="8.90509" gradientUnits="userSpaceOnUse">
<stop stop-color="#3F34EC"/>
<stop offset="1" stop-color="#13D8D4"/>
</linearGradient>
</defs>
</svg>

<svg width="96" height="96" fill="none" xmlns="http://www.w3.org/2000/svg"><path d="M0 4a4 4 0 014-4h12.5a2.5 2.5 0 010 5H7a2 2 0 00-2 2v9.5a2.5 2.5 0 01-5 0V4z" fill="url(#paint0_linear_285_548)"/><path d="M4 96a4 4 0 01-4-4V79.5a2.5 2.5 0 015 0V89a2 2 0 002 2h9.5a2.5 2.5 0 010 5H4z" fill="url(#paint1_linear_285_548)"/><path d="M92 96a4 4 0 004-4V79.5a2.5 2.5 0 00-5 0V89a2 2 0 01-2 2h-9.5a2.5 2.5 0 000 5H92z" fill="url(#paint2_linear_285_548)"/><path d="M92 0a4 4 0 014 4v12.5a2.5 2.5 0 01-5 0V7a2 2 0 00-2-2h-9.5a2.5 2.5 0 010-5H92z" fill="url(#paint3_linear_285_548)"/><path d="M47.5 71c2.119 0 4.368-.724 6.618-1.978.652 6.384 3.94 10.643 8.255 13.265 3.941 2.394 8.614 3.362 12.639 3.63 1.377.092 2.497-1.036 2.497-2.417 0-1.38-1.12-2.49-2.497-2.596-3.416-.263-7.094-1.1-10.042-2.89C61.472 75.888 58.826 72.27 59 66c.209-.175.416-.355.622-.537C61.472 63.82 60.16 61 57.687 61c-.753 0-1.475.294-2.04.791a26.43 26.43 0 01-2.371 1.866C50.805 65.371 48.833 66 47.5 66c-1.401 0-3.403-.622-5.851-2.254a26.02 26.02 0 01-2.642-2.033A2.835 2.835 0 0037.151 61c-2.298 0-3.49 2.644-1.777 4.175a33.392 33.392 0 002.133 1.759c-.081 5.735-2.634 9.053-5.968 11.08-2.948 1.79-6.626 2.627-10.042 2.89C20.121 81.01 19 82.12 19 83.5c0 1.38 1.12 2.509 2.498 2.417 4.023-.268 8.697-1.236 12.638-3.63 4.137-2.515 7.331-6.533 8.161-12.488C44.07 70.57 45.826 71 47.5 71z" fill="url(#paint4_linear_285_548)"/><path fill-rule="evenodd" clip-rule="evenodd" d="M70.097 50.618A2.361 2.361 0 0167.93 52c-1.887 0-3.07-2.07-2.278-3.784C67.162 44.948 68 41.873 68 39.5c0-9.616-2.606-16.207-6.224-20.324C58.198 15.106 53.242 13 47.5 13c-5.605 0-10.587 2.255-14.237 6.507C29.578 23.798 27 30.438 27 39.5c0 2.555.782 5.613 2.179 8.771.752 1.7-.422 3.729-2.28 3.729-.912 0-1.752-.513-2.13-1.343a36.274 36.274 0 01-1.435-3.654l-.662.001c-.283 0-.584-.002-.813-.003H21.5a8.5 8.5 0 110-17l.264-.002h.119l1.076-.003C25.985 15.9 35.826 8 47.5 8c11.769 0 21.675 7.332 24.614 21.997.18-.002.515-.001.813 0L73.5 30a8.5 8.5 0 010 17l-.279.001h-.086c-.422.002-1.112.004-1.595.003a47.554 47.554 0 01-1.443 3.614zM73 39.5c0 .806-.065 1.645-.19 2.51.081 0 .17 0 .256-.002l.214-.004h.003l.153-.003h.064a3.5 3.5 0 100-7l-.222-.004-.155-.003-.14-.002-.169-.002c.123 1.445.186 2.949.186 4.51zm-50.797-4.512l-.378.007-.234.004L21.5 35a3.5 3.5 0 000 7l.198.003h.024l.017.001c.13.003.288.006.428.007A19.676 19.676 0 0122 39.5c0-1.556.07-3.06.203-4.512z" fill="url(#paint5_linear_285_548)"/><path d="M4 56.5A2.5 2.5 0 016.5 54h11a2.5 2.5 0 010 5h-11A2.5 2.5 0 014 56.5z" fill="url(#paint6_linear_285_548)"/><path d="M30 56.5a2.5 2.5 0 002.5 2.5h8a2.5 2.5 0 000-5h-8a2.5 2.5 0 00-2.5 2.5z" fill="url(#paint7_linear_285_548)"/><path d="M66 56.5a2.5 2.5 0 01-2.5 2.5h-8a2.5 2.5 0 010-5h8a2.5 2.5 0 012.5 2.5z" fill="url(#paint8_linear_285_548)"/><path d="M76 56.5a2.5 2.5 0 002.5 2.5h11a2.5 2.5 0 000-5h-11a2.5 2.5 0 00-2.5 2.5z" fill="url(#paint9_linear_285_548)"/><defs><linearGradient id="paint0_linear_285_548" x1="0" y1="0" x2="103.494" y2="8.905" gradientUnits="userSpaceOnUse"><stop stop-color="#3F34EC"/><stop offset="1" stop-color="#13D8D4"/></linearGradient><linearGradient id="paint1_linear_285_548" x1="0" y1="0" x2="103.494" y2="8.905" gradientUnits="userSpaceOnUse"><stop stop-color="#3F34EC"/><stop offset="1" stop-color="#13D8D4"/></linearGradient><linearGradient id="paint2_linear_285_548" x1="0" y1="0" x2="103.494" y2="8.905" gradientUnits="userSpaceOnUse"><stop stop-color="#3F34EC"/><stop offset="1" stop-color="#13D8D4"/></linearGradient><linearGradient id="paint3_linear_285_548" x1="0" y1="0" x2="103.494" y2="8.905" gradientUnits="userSpaceOnUse"><stop stop-color="#3F34EC"/><stop offset="1" stop-color="#13D8D4"/></linearGradient><linearGradient id="paint4_linear_285_548" x1="0" y1="0" x2="103.494" y2="8.905" gradientUnits="userSpaceOnUse"><stop stop-color="#3F34EC"/><stop offset="1" stop-color="#13D8D4"/></linearGradient><linearGradient id="paint5_linear_285_548" x1="0" y1="0" x2="103.494" y2="8.905" gradientUnits="userSpaceOnUse"><stop stop-color="#3F34EC"/><stop offset="1" stop-color="#13D8D4"/></linearGradient><linearGradient id="paint6_linear_285_548" x1="0" y1="0" x2="103.494" y2="8.905" gradientUnits="userSpaceOnUse"><stop stop-color="#3F34EC"/><stop offset="1" stop-color="#13D8D4"/></linearGradient><linearGradient id="paint7_linear_285_548" x1="0" y1="0" x2="103.494" y2="8.905" gradientUnits="userSpaceOnUse"><stop stop-color="#3F34EC"/><stop offset="1" stop-color="#13D8D4"/></linearGradient><linearGradient id="paint8_linear_285_548" x1="0" y1="0" x2="103.494" y2="8.905" gradientUnits="userSpaceOnUse"><stop stop-color="#3F34EC"/><stop offset="1" stop-color="#13D8D4"/></linearGradient><linearGradient id="paint9_linear_285_548" x1="0" y1="0" x2="103.494" y2="8.905" gradientUnits="userSpaceOnUse"><stop stop-color="#3F34EC"/><stop offset="1" stop-color="#13D8D4"/></linearGradient></defs></svg>
